teeny/solid/file-minus.svg

<svg width="15" height="15" viewBox="0 0 15 15" fill="none" xmlns="http://www.w3.org/2000/svg">
<path fill-rule="evenodd" clip-rule="evenodd" d="M1 1.5C1 0.671573 1.67157 0 2.5 0H10.7071L14 3.29289V13.5C14 14.3284 13.3284 15 12.5 15H2.5C1.67157 15 1 14.3284 1 13.5V1.5ZM5 8H10V7H5V8Z" fill="black"/>
</svg>

<svg viewBox="0 0 15 15" xmlns="http://www.w3.org/2000/svg"><path fill-rule="evenodd" d="M1 1.5C1 .67 1.67 0 2.5 0h8.2l3.29 3.29v10.2c0 .82-.68 1.5-1.5 1.5h-10c-.83 0-1.5-.68-1.5-1.5v-12ZM5 8h5V7H5v1Z"/></svg>
